assets/img/braze_icons/file-minus-01.svg

<svg fill="none" height="24" viewBox="0 0 24 24" width="24" xmlns="http://www.w3.org/2000/svg"><g fill="#801ed7"><path clip-rule="evenodd" d="m14 17c0-.5523.4477-1 1-1h6c.5523 0 1 .4477 1 1s-.4477 1-1 1h-6c-.5523 0-1-.4477-1-1z" fill-rule="evenodd"/><path d="m15.2413 1h-6.4826c-.80496-.000012-1.46933-.000022-2.01052.04419-.5621.04593-1.07881.14449-1.56414.39179-.75265.38349-1.36457.99541-1.74806 1.74806-.2473.48533-.34586 1.00204-.39179 1.56414-.04421.54119-.0442 1.20554-.04419 2.01051v10.48261c-.00001.805-.00002 1.4693.04419 2.0105.04593.5621.14449 1.0788.39179 1.5642.38349.7526.99541 1.3645 1.74806 1.748.48533.2473 1.00204.3459 1.56414.3918.54119.0442 1.20554.0442 2.0105.0442h6.48262c.805 0 1.4693 0 2.0105-.0442.5621-.0459 1.0788-.1445 1.5642-.3918.7526-.3835 1.3645-.9954 1.748-1.748.0612-.1201.0918-.1801.0987-.2821.0125-.1842-.1328-.4213-.3026-.4938-.094-.0401-.1885-.0401-.3773-.0401h-4.9828c-1.6569 0-3-1.3431-3-3s1.3431-3 3-3h5.2c.28 0 .42 0 .527-.0545.0941-.0479.1706-.1244.2185-.2185.0545-.107.0545-.247.0545-.527v-6.44132c0-.80496 0-1.46931-.0442-2.0105-.0459-.5621-.1445-1.07881-.3918-1.56414-.3835-.75265-.9954-1.36457-1.748-1.74806-.4854-.2473-1.0021-.34586-1.5642-.39179-.5412-.044212-1.2055-.044202-2.0105-.04419z"/></g></svg>

<svg width="24" height="24" viewBox="0 0 24 24" fill="none" xmlns="http://www.w3.org/2000/svg">
<path fill-rule="evenodd" clip-rule="evenodd" d="M14 17C14 16.4477 14.4477 16 15 16H21C21.5523 16 22 16.4477 22 17C22 17.5523 21.5523 18 21 18H15C14.4477 18 14 17.5523 14 17Z" fill="#801ED7"/>
<path d="M15.2413 1H8.7587C7.95374 0.999988 7.28937 0.999978 6.74818 1.04419C6.18608 1.09012 5.66937 1.18868 5.18404 1.43598C4.43139 1.81947 3.81947 2.43139 3.43598 3.18404C3.18868 3.66937 3.09012 4.18608 3.04419 4.74818C2.99998 5.28937 2.99999 5.95372 3 6.75869V17.2413C2.99999 18.0463 2.99998 18.7106 3.04419 19.2518C3.09012 19.8139 3.18868 20.3306 3.43598 20.816C3.81947 21.5686 4.43139 22.1805 5.18404 22.564C5.66937 22.8113 6.18608 22.9099 6.74818 22.9558C7.28937 23 7.95372 23 8.75868 23H15.2413C16.0463 23 16.7106 23 17.2518 22.9558C17.8139 22.9099 18.3306 22.8113 18.816 22.564C19.5686 22.1805 20.1805 21.5686 20.564 20.816C20.6252 20.6959 20.6558 20.6359 20.6627 20.5339C20.6752 20.3497 20.5299 20.1126 20.3601 20.0401C20.2661 20 20.1716 20 19.9828 20H15C13.3431 20 12 18.6569 12 17C12 15.3431 13.3431 14 15 14H20.2C20.48 14 20.62 14 20.727 13.9455C20.8211 13.8976 20.8976 13.8211 20.9455 13.727C21 13.62 21 13.48 21 13.2V6.75868C21 5.95372 21 5.28937 20.9558 4.74818C20.9099 4.18608 20.8113 3.66937 20.564 3.18404C20.1805 2.43139 19.5686 1.81947 18.816 1.43598C18.3306 1.18868 17.8139 1.09012 17.2518 1.04419C16.7106 0.999978 16.0463 0.999988 15.2413 1Z" fill="#801ED7"/>
</svg>
